X: 77
M:2/4
L:1/16
K:F
(ucB)|AFAc fcAc|Bdgf edcB|Acfe dcBA|.G2.G2 .G2(cB)|
|:(uef)|gfed cBAG|AFGA Bcde|fgaf bagf|.e2.c2 .c2(cB)|


